ix/volume-low_bold.svg

<svg viewBox="0 0 24 24" fill="none" xmlns="http://www.w3.org/2000/svg" height="1em" width="1em">
  <path d="M22 12.75H18C17.59 12.75 17.25 12.41 17.25 12C17.25 11.59 17.59 11.25 18 11.25H22C22.41 11.25 22.75 11.59 22.75 12C22.75 12.41 22.41 12.75 22 12.75Z" fill="#292D32"/>
  <path d="M14.02 3.78168C12.9 3.16168 11.47 3.32168 10.01 4.23168L7.09 6.06168C6.89 6.18168 6.66 6.25168 6.43 6.25168H5.5H5C2.58 6.25168 1.25 7.58168 1.25 10.0017V14.0017C1.25 16.4217 2.58 17.7517 5 17.7517H5.5H6.43C6.66 17.7517 6.89 17.8217 7.09 17.9417L10.01 19.7717C10.89 20.3217 11.75 20.5917 12.55 20.5917C13.07 20.5917 13.57 20.4717 14.02 20.2217C15.13 19.6017 15.75 18.3117 15.75 16.5917V7.41168C15.75 5.69168 15.13 4.40168 14.02 3.78168Z" fill="#292D32"/>
</svg>

<svg viewBox="0 0 24 24" fill="none" xmlns="http://www.w3.org/2000/svg" height="1em" width="1em">
  <path d="M22 12.75h-4c-.41 0-.75-.34-.75-.75s.34-.75.75-.75h4c.41 0 .75.34.75.75s-.34.75-.75.75Zm-7.98-8.968c-1.12-.62-2.55-.46-4.01.45l-2.92 1.83c-.2.12-.43.19-.66.19H5c-2.42 0-3.75 1.33-3.75 3.75v4c0 2.42 1.33 3.75 3.75 3.75h1.43c.23 0 .46.07.66.19l2.92 1.83c.88.55 1.74.82 2.54.82a3 3 0 0 0 1.47-.37c1.11-.62 1.73-1.91 1.73-3.63v-9.18c0-1.72-.62-3.01-1.73-3.63Z" fill="#292D32"/>
</svg>
